!!!!SEGMENT: pl-wnifc--6670-n--001-004_gall-jan-karol--piesni-polskie-na-chor-meski-z-i-4-pozwol-mi-twe-meki-spiewac.krn
!!!cenid: 19xx:172
!!!COM: Gall, Jan Karol
!!!COM-rismID: pe50042628
!!!CDT: 1856-1912
!!!CNT: Polish
!!!GTL: Pieśni polskie na chór męski (z. I)
!!!OTL: 4. Pozwól mi Twe męki śpiewać
!!!OMV: 004
!!!PDT:
!!!AGN:
!!!YEC: Copyright 2022 Narodowy Instytut Fryderyka Chopina (https://polishscores.org)
!!!YEM: License CC-BY-4.0 (https://creativecommons.org/licenses/by/4.0)
!!!SMS-siglum: PL-Wnifc
!!!SMS-shelfmark: 6670/n
!!!SMS-variant:
!!!SMS-altvar:
!!!SMS-shelfwork: 001-004 G
!!!NIFC-rismSourceID: 1001152877
!!!NIFC-rismChildID: 1001152885
!!!NIFC-islandoraID: nifc:213182
!!!URL-pdf-islandora: https://repozytorium.nifc.pl/islandora/object/nifc:213182/datastream/PDF/view
!!!URL-scan: https://polish.musicsources.pl/pl/lokalizacje/galeria/druki-muzyczne/16895/4 @EN{Scan on Polish Music Sources Website} @PL{Skany w portalu Dziedzictwo Muzyki Polskiej w otwartym dostępie}
!!!IIIF:
!!!ONB-nifc:
!!!AIN: 1 bass 1 tenor
!!!key: B-
**kern	**kern	**text	**text
*part2	*part1	*part1	*part1
*staff2	*staff1	*staff1	*staff1
*ICvox	*ICvox	*	*
*Ibass	*Itenor	*	*
*I"Basy.	*I"Tenory.	*	*
*I'	*I'	*	*
*clefF4	*clefGv	*	*
*	*ITrd8c12	*	*
*k[b-e-]	*k[b-e-]	*	*
*B-:	*B-:	*	*
*M2/2	*M2/2	*	*
*met(c|)	*met(c|)	*	*
=1	=1	=1	=1
*^	*^	*	*
*	*	*	*	*	*
*	*	*	*	*v:1	*v:2
!!LO:TX:a:t=(Na wielki post.)
!!LO:TX:a:B:t=Non troppo lento.
!	!	!LO:TX:t=P:problem:partia zapisana bez przenośnika oktawowego	!	!	!
2F/	2BB-\	2d/	2B-\	Po-	Je-
2F/	2BB-\	2d/	2B-\	-zwól	-zu
=2	=2	=2	=2	=2	=2
2F/	2F\	2c/	4B-\	mi	pię-
.	.	.	4A\	.	.
(4F/	2BB-\	2d/	2B-\	Twe_	-tnuj_
4A-X/)	.	.	.	.	.
=3	=3	=3	=3	=3	=3
(2G/	2.BB-\	2.e-/	2.B-\	mę-	Twe-
4G-X/)	.	.	.	.	.
4F/	4BB-\	4d/	4B-\	-ki	-mi
=4	=4	=4	=4	=4	=4
(4F/	2FF\	2d/	(4B-\	śpie-	ra-
4En/)	.	.	4Gn\)	.	.
2F/	2FF\	2c/	2A\	-wać	-ny
!!LO:LB:g=original
=5	=5	=5	=5	=5	=5
2F/	2BB-\	2d/	2B-\	I	Wgłę-
2F/	2BB-\	2d/	2B-\	z czu-	-bi
=6	=6	=6	=6	=6	=6
2F/	2F\	2c/	(4B-\	-ło-	ser-
.	.	.	4A\)	.	.
(4F/	2BB-\	2d/	2B-\	-ścią_	-ca_
4A-X/)	.	.	.	.	.
=7	=7	=7	=7	=7	=7
(2G/	2.BB-\	2.e-/	2.B-\	u-	chrze-
4G-X/)	.	.	.	.	.
4F/	4BB-\	4d/	4B-\	-bo-	-śći-
=8	=8	=8	=8	=8	=8
(4F/	2FF\	2d/	(4B-\	-le-	-ja-
4En/)	.	.	4Gn\)	.	.
2F/	2FF\	2c/	2A\	-wać	-ny
!!LO:LB:g=original
=9	=9	=9	=9	=9	=9
2F/	2BB-\	2d/	2B-\	O	Nie-
(4F/	(4FF\	2c/	2A\	ba-	-chaj_
4E-/)	4FF#X\)	.	.	.	.
=10	=10	=10	=10	=10	=10
2D/	2GG\	2B-/	2G\	-ran-	bó-
(4C/	[4GG\	(4A/	[4G\	-ku	-leść_
8D/L)	8GG\L]	4B-/)	4G\]	bez_	.
8F/J	8G\J	.	.	.	.
=11	=11	=11	=11	=11	=11
*	*^	*	*^	*	*
*	*	*	*	*	*^	*	*
(2.F	1C	2.ryy	1c	1G	2.ryy	2.ryy	zma-	śmier-
*	*	*cue	*	*	*cue	*cue	*	*
!	!	!LO:TX:t=P:problem:nawias	!	!	!LO:TX:t=P:problem:nawias	!	!	!
4En)	.	4Eny 4C/	.	.	4c/	4G\	.	-ci
*	*	*Xcue	*	*	*Xcue	*Xcue	*	*
*	*	*	*	*	*v	*v	*	*
*	*	*	*	*v	*v	*	*
*	*v	*v	*	*	*	*
*v	*v	*	*	*	*
=12	=12	=12	=12	=12
2F;;\	2F;/	2F;\	-zy!	Twej.
2r;	2r;	2ryy	.	.
!!LO:LB:g=original
=13	=13	=13	=13	=13
*^	*	*	*	*
2F/	2BB-\	2d/	2B-\	Któ-	Z mniej-
2F/	2C\	2e-/	(4B-\	-ry_	-szy_
.	.	.	4A\)	.	.
=14	=14	=14	=14	=14	=14
(2F/	(2D\	(2f/	(4B-\	gła-	bo-
.	.	.	4A-X\	.	.
4E-/)	4E-\)	4g/)	4G\)	-dzisz	.
4G/	4C\	4e-/	4B-\	me	-leść
=15	=15	=15	=15	=15	=15
(2F/	(2F\	(2d/	[2B-\	ska-	śmier-
2E-/)	2FF\)	2c/)	(4B-\]	.	-ci
.	.	.	4A\)	.	.
=16	=16	=16	=16	=16	=16
2.D/	2.BB-\	2.B-/	2.B-\	-zy!	mej!
4r	4ryy	4r	4ryy	.	.
*v	*v	*	*	*	*
*	*v	*v	*	*
==	==	==	==
*-	*-	*-	*-
!!!system-decoration: [(s1,s2)]
!!!RDF**kern: > = above
!!!RDF**kern: < = below
!!!RDF**kern: N = linked
!!!ENC: Filip Voros
!!!EED: Katarzyna Serwa
!!!END: 2024-05-02
!!!EEV: 2025-03-06
